X: 3798
T: Björn's
R: polka
M: 2/4
K: Gmajor
|:B/c/|dB/c/ dB/c/|dB GB/c/|dB/c/ dg|f2- ff/g/|
az/.f/ az/.f/|a/g/f/e/ d>e|dz/c/ BA|1 G2- G:|2 Gg f=f||
|:e2 c2|Gg g/f/e|d2 B2|Gg fg|
a2 f2|da ^ga|b2 g2|dg f=f|
e2 c2|Gg fe|d2 B2|Gg fe|
d2 c2|E2 F2|G>A GF|1 Gg f=f:|2 G2 G||

